Catalina-light/actions/16/document-new-from-template.svg

<svg xmlns="http://www.w3.org/2000/svg" width="16" height="16" viewBox="0 0 16 16">
 <defs>
  <style id="current-color-scheme" type="text/css">
   .ColorScheme-Text { color:#5c616c; } .ColorScheme-Highlight { color:#5294e2; }
  </style>
 </defs>
 <path style="fill:currentColor" class="ColorScheme-Text" d="M 2.8398438 1.0058594 C 2.5588138 1.0495894 1.9960938 1.2398131 1.9960938 1.9394531 L 1.9960938 14.066406 C 1.9960938 14.999266 2.9960938 15 2.9960938 15 L 12.986328 15 C 13.985538 15 13.986328 14.066406 13.986328 14.066406 C 14.005128 14.023396 13.991328 7.1143812 13.986328 4.7382812 L 9.9902344 1.0058594 L 2.9960938 1.0058594 C 2.9960938 1.0058594 2.9335938 0.99130938 2.8398438 1.0058594 z M 7.9960938 4 L 8.7617188 6.1523438 L 10.824219 5.171875 L 9.84375 7.234375 L 11.996094 8 L 9.84375 8.765625 L 10.824219 10.828125 L 8.7617188 9.8476562 L 7.9960938 12 L 7.2304688 9.8476562 L 5.1679688 10.828125 L 6.1484375 8.765625 L 3.9960938 8 L 6.1484375 7.234375 L 5.1679688 5.171875 L 7.2304688 6.1523438 L 7.9960938 4 z"/>
</svg>

<svg width="16" height="16" viewBox="0 0 16 16" xmlns="http://www.w3.org/2000/svg">
<defs>
<style id="current-color-scheme" type="text/css">.ColorScheme-Text { color:#5c616c; } .ColorScheme-Highlight { color:#5294e2; }</style>
</defs>
<path class="ColorScheme-Text" d="m2.8398 1.0059c-0.28103 0.04373-0.84375 0.23395-0.84375 0.93359v12.127c0 0.93286 1 0.93359 1 0.93359h9.9902c0.99921 0 1-0.93359 1-0.93359 0.0188-0.04301 5e-3 -6.952 0-9.3281l-3.9961-3.7324h-6.9941s-0.0625-0.01455-0.15625 0zm5.1562 2.9941 0.76562 2.1523 2.0625-0.98047-0.98047 2.0625 2.1523 0.76562-2.1523 0.76562 0.98047 2.0625-2.0625-0.98047-0.76562 2.1523-0.76562-2.1523-2.0625 0.98047 0.98047-2.0625-2.1523-0.76562 2.1523-0.76562-0.98047-2.0625 2.0625 0.98047 0.76562-2.1523z" fill="#363636"/>
</svg>
